!!!COM:	Bach, Johann Sebastian
!!!CDT:	1685/02/21/-1750/07/28/
!!!OTL@@DE:	Das alte Jahr vergangen ist
!!!SCT:	BWV 289
!!!PC#:	314
!!!AGN:	chorale
**kern	**kern	**kern	**kern
*ICvox	*ICvox	*ICvox	*ICvox
*Ibass	*Itenor	*Ialto	*Isoprn
*I"Bass	*I"Tenor	*I"Alto	*I"Soprano
*	*oclefC4	*oclefC3	*oclefC1
*clefF4	*clefGv2	*clefG2	*clefG2
*k[f#]	*k[f#]	*k[f#]	*k[f#]
*e:	*e:	*e:	*e:
*M4/4	*M4/4	*M4/4	*M4/4
*met(c)	*met(c)	*met(c)	*met(c)
*MM100	*MM100	*MM100	*MM100
8BL	4d#	4f#	4b
8AJ	.	.	.
=1	=1	=1	=1
8GL	4e	4g	4b
8EJ	.	.	.
4C#	4A	4e	8aL
.	.	.	8gJ
4D	4A	4dnX	4f#
8BBL	4d	4g	4b
8GGJ	.	.	.
=2	=2	=2	=2
4D	4d	4f#	8aL
.	.	.	8gJ
4D#	8cL	4f#	4f#
.	8BJ	.	.
4E;	4B;	4e;	4g;
8EL	4e	4g#	4b
8DJ	.	.	.
=3	=3	=3	=3
4C	4e	[2e	4b
4C#	4A	.	8aL
.	.	.	8gnXJ
4D	4A	8eL]	4f#
.	.	8dJ	.
4GG#	4FnX	4d	4b
=4	=4	=4	=4
4AA	4E	4c#	8aL
.	.	.	8gnXJ
4DD#	4F#X	8cL	4f#
.	.	8BJ	.
4EE;	4E;	4B;	4g;
4E	4B	4g	4b
=5	=5	=5	=5
4AA	4A	4g	4cc#
4A	4B	4f#	4dd#
4G#	4B	4e	4ee
4G	4B	4e	8bL
.	.	.	8cc#J
=6	=6	=6	=6
8F#L	4B	4f#	4ddnX
8EJ	.	.	.
4F#	8A#L	4f#	4cc#
.	8eJ	.	.
4BB;	4d;	4f#;	4b;
4AA#	[4c#	4f#	4cc#
=7	=7	=7	=7
4BB	8c#L]	4f#	4dd
.	[8BJ	.	.
4F#	8BL]	[4f#	4cc#
.	8AJ	.	.
8GL	4B	8f#L]	4b
8F#J	.	8dJ	.
8EL	4B	8gL	4b
8DJ	.	8f#J	.
=8	=8	=8	=8
4C	8cnXL	4e	8aL
.	8BJ	.	8gJ
4D	4A	8dL	4f#
.	.	8cJ	.
4GG;	4G;	4B;	4g;
4C#	4G	4e	4a
=9	=9	=9	=9
4D	4F#	4d	4a
4GG	8GL	4d	4b
.	8F#J	.	.
4AA	4E	4c#	8aL
.	.	.	8gJ
4BB	4B	4d#	4f#
=10	=10	=10	=10
8EEL	4B	4e	4g
8FF#	.	.	.
8GG	4B	[4e	4g
8AAJ	.	.	.
4BB;	4B;	8eL]	4f#;
.	.	8d#;J	.
4AA#	4c#	4f#	4cc#
=11	=11	=11	=11
4BB	4B	4f#	4dd
4E	4A#	4g	4cc#
8DL	8BL	4f#	4b
8C#J	8c#J	.	.
8BBL	8dL	4f#	4f#
8AAJ	8c#J	.	.
=12	=12	=12	=12
4GG#	4B	4f#	4b
4C#	4c#	4e#	4b
4FF#;	4c#;	4f#;	4a#;
==	==	==	==
*-	*-	*-	*-
!!!YOR1: 371 vierstimmige Choralges&auml;nge von Johann Sebastian Bach, 
!!!YOR2: 4th ed. by Alfred D&ouml;rffel (Leipzig: Breitkopf und H&auml;rtel, 
!!!YOR2: c.1875). 178 pp. Plate "V.A.10".  reprint: J.S. Bach, 371 Four-Part 
!!!YOR4: Chorales (New York: Associated Music Publishers, Inc., c.1940).
!!!SMS: B&H, 4th ed, Alfred D&ouml;rffel, c.1875, plate V.A.10
!!!EED:  Craig Stuart Sapp
!!!EEV:  2009/05/22
